inbox-remove-outline.svg

<svg fill="currentColor" viewBox="0 0 24 24"><path d="M19 3H5c-1.1 0-2 .9-2 2v14c0 1.1.9 2 2 2h14c1.1 0 2-.9 2-2V5c0-1.1-.9-2-2-2M5 19v-2h3.1c.2.8.7 1.5 1.3 2m9.6 0h-4.4c.6-.5 1.1-1.2 1.3-2H19m0-2h-5v1c0 1.1-.9 2-2 2s-2-.9-2-2v-1H5V5h14zm-4.9-8.5 1.4 1.4-2.1 2.1 2.1 2.1-1.4 1.4-2.1-2.1-2.1 2.1-1.4-1.4 2.1-2.1-2.1-2.1 1.4-1.4L12 8.6z"/></svg>

<svg  viewBox="0 0 24 24" fill="currentColor"><path  d="M19 3H5C3.9 3 3 3.9 3 5V19C3 20.1 3.9 21 5 21H19C20.1 21 21 20.1 21 19V5C21 3.9 20.1 3 19 3M5 19V17H8.1C8.3 17.8 8.8 18.5 9.4 19M19 19H14.6C15.2 18.5 15.7 17.8 15.9 17H19M19 15H14V16C14 17.1 13.1 18 12 18S10 17.1 10 16V15H5V5H19V15M14.1 6.5L15.5 7.9L13.4 10L15.5 12.1L14.1 13.5L12 11.4L9.9 13.5L8.5 12.1L10.6 10L8.5 7.9L9.9 6.5L12 8.6L14.1 6.5Z"/></svg>
